_includes/icons/color-audio.svg

<svg fill="#666" height="50" viewBox="0 0 48 48" width="50" xmlns="http://www.w3.org/2000/svg"><path d="m28 7.128906v2.019532c7.328125.984375 13 7.257812 13 14.851562s-5.671875 13.867188-13 14.851563v2.019531c8.433594-.992188 15-8.175781 15-16.871094 0-8.695312-6.566406-15.878906-15-16.871094" fill="#81d4fa"/><path d="m14 32h-7c-1.105469 0-2-.894531-2-2v-12c0-1.105469.894531-2 2-2h7z" fill="#546e7a"/><path d="m26 42-12-10v-16l12-10z" fill="#78909c"/><path d="m28 17.296875v2.128906c1.761719.773438 3 2.527344 3 4.574219s-1.238281 3.804688-3 4.574219v2.128906c2.886719-.859375 5-3.539062 5-6.703125 0-3.164062-2.113281-5.84375-5-6.703125" fill="#03a9f4"/><path d="m28 12.179688v2.023437c4.558594.929688 8 4.96875 8 9.796875 0 4.832031-3.441406 8.871094-8 9.800781v2.019532c5.664063-.957032 10-5.886719 10-11.820313s-4.335937-10.863281-10-11.820312" fill="#4fc3f7"/></svg>

<svg xmlns="http://www.w3.org/2000/svg" viewBox="0 0 48 48" width="50" height="50" fill="#666"><path d="M 28 7.128906 L 28 9.148438 C 35.328125 10.132813 41 16.40625 41 24 C 41 31.59375 35.328125 37.867188 28 38.851563 L 28 40.871094 C 36.433594 39.878906 43 32.695313 43 24 C 43 15.304688 36.433594 8.121094 28 7.128906" fill="#81d4fa"/><path d="M 14 32 L 7 32 C 5.894531 32 5 31.105469 5 30 L 5 18 C 5 16.894531 5.894531 16 7 16 L 14 16 Z" fill="#546e7a"/><path d="M 26 42 L 14 32 L 14 16 L 26 6 Z" fill="#78909c"/><path d="M 28 17.296875 L 28 19.425781 C 29.761719 20.199219 31 21.953125 31 24 C 31 26.046875 29.761719 27.804688 28 28.574219 L 28 30.703125 C 30.886719 29.84375 33 27.164063 33 24 C 33 20.835938 30.886719 18.15625 28 17.296875" fill="#03a9f4"/><path d="M 28 12.179688 L 28 14.203125 C 32.558594 15.132813 36 19.171875 36 24 C 36 28.832031 32.558594 32.871094 28 33.800781 L 28 35.820313 C 33.664063 34.863281 38 29.933594 38 24 C 38 18.066406 33.664063 13.136719 28 12.179688" fill="#4fc3f7"/></svg>
